;FLAVOR:Marlin
;TIME:31577
;Filament used: 21.6491m
;Layer height: 0.2
;MINX:41.5
;MINY:32.5
;MINZ:0.2
;MAXX:193.5
;MAXY:202.5
;MAXZ:10
;Generated with Cura_SteamEngine 4.8.0
M140 S60
M105
M190 S60
M104 S200
M105
M109 S200
M82 ;absolute extrusion mode
M201 X500.00 Y500.00 Z100.00 E5000.00 ;Setup machine max acceleration
M203 X500.00 Y500.00 Z10.00 E50.00 ;Setup machine max feedrate
M204 P500.00 R1000.00 T500.00 ;Setup Print/Retract/Travel acceleration
M205 X8.00 Y8.00 Z0.40 E5.00 ;Setup Jerk
M220 S100 ;Reset Feedrate
M221 S100 ;Reset Flowrate

G28 ;Home

G92 E0 ;Reset Extruder
G1 Z2.0 F3000 ;Move Z Axis up
G1 X10.1 Y20 Z0.28 F5000.0 ;Move to start position
G1 X10.1 Y200.0 Z0.28 F1500.0 E15 ;Draw the first line
G1 X10.4 Y200.0 Z0.28 F5000.0 ;Move to side a little
G1 X10.4 Y20 Z0.28 F1500.0 E30 ;Draw the second line
G92 E0 ;Reset Extruder
G1 Z2.0 F3000 ;Move Z Axis up

G92 E0
G92 E0
G1 F1500 E-6.5
;LAYER_COUNT:50
;LAYER:0
M107
G0 F6000 X44.078 Y36.445 Z0.2
;TYPE:SKIRT
G1 F1500 E0
G1 F1200 X44.71 Y35.752 E0.03119
G1 X45.399 Y35.116 E0.06238
G1 X46.14 Y34.541 E0.09358
G1 X46.927 Y34.031 E0.12477
G1 X47.755 Y33.59 E0.15597
G1 X48.617 Y33.221 E0.18716
G1 X49.508 Y32.927 E0.21836
G1 X50.42 Y32.709 E0.24955
G1 X51.347 Y32.571 E0.28072
G1 X52.201 Y32.513 E0.30919
G1 X52.521 Y32.504 E0.31984
G1 X52.83 Y32.5 E0.33012
G1 X181.793 Y32.5 E4.61945
G1 X182.649 Y32.511 E4.64792
G1 X183.585 Y32.565 E4.6791
G1 X184.513 Y32.697 E4.71028
G1 X185.427 Y32.909 E4.74148
G1 X186.319 Y33.198 E4.77267
G1 X187.184 Y33.561 E4.80387
G1 X188.014 Y33.997 E4.83505
G1 X188.805 Y34.502 E4.86627
G1 X189.549 Y35.073 E4.89746
G1 X190.242 Y35.705 E4.92866
G1 X190.879 Y36.393 E4.95984
G1 X191.454 Y37.134 E4.99104
G1 X191.965 Y37.92 E5.02222
G1 X192.407 Y38.748 E5.05344
G1 X192.776 Y39.61 E5.08462
G1 X193.071 Y40.5 E5.11581
G1 X193.289 Y41.412 E5.147
G1 X193.429 Y42.34 E5.17821
G1 X193.487 Y43.201 E5.20691
G1 X193.496 Y43.521 E5.21756
G1 X193.5 Y43.83 E5.22784
G1 X193.499 Y190.9 E10.11941
G1 X193.49 Y191.627 E10.14359
G1 X193.439 Y192.564 E10.1748
G1 X193.307 Y193.492 E10.20597
G1 X193.098 Y194.406 E10.23716
G1 X192.811 Y195.299 E10.26836
G1 X192.449 Y196.165 E10.29958
G1 X192.015 Y196.996 E10.33076
G1 X191.511 Y197.787 E10.36195
G1 X190.942 Y198.532 E10.39313
G1 X190.311 Y199.227 E10.42435
G1 X189.624 Y199.865 E10.45554
G1 X188.885 Y200.442 E10.48672
G1 X188.099 Y200.954 E10.51792
G1 X187.273 Y201.397 E10.54909
G1 X186.411 Y201.769 E10.58032
G1 X185.522 Y202.065 E10.61149
G1 X184.61 Y202.285 E10.64269
G1 X183.683 Y202.426 E10.67388
G1 X182.799 Y202.487 E10.70335
G1 X182.478 Y202.496 E10.71403
G1 X182.17 Y202.5 E10.72427
G1 X158.039 Y202.499 E11.52687
G1 X157.319 Y202.488 E11.55082
G1 X156.548 Y202.449 E11.5765
G1 X153.832 Y202.216 E11.66717
G1 X151.314 Y202.075 E11.75105
G1 X148.782 Y202.003 E11.83529
G1 X146.295 Y202.003 E11.91801
G1 X143.737 Y202.075 E12.00313
G1 X141.276 Y202.215 E12.08511
G1 X139.824 Y202.338 E12.13358
G1 X139.649 Y202.345 E12.1394
G1 X138.434 Y202.45 E12.17996
G1 X137.799 Y202.487 E12.20112
G1 X137.48 Y202.496 E12.21174
G1 X137.17 Y202.5 E12.22205
G1 X98.218 Y202.499 E13.5176
G1 X97.537 Y202.489 E13.54025
G1 X96.755 Y202.449 E13.56629
G1 X94.033 Y202.214 E13.65716
G1 X91.474 Y202.067 E13.74242
G1 X88.99 Y201.994 E13.82507
G1 X86.467 Y201.992 E13.90898
G1 X83.942 Y202.061 E13.993
G1 X81.42 Y202.201 E14.07701
G1 X79.814 Y202.336 E14.13061
G1 X79.703 Y202.341 E14.13431
G1 X78.434 Y202.45 E14.17667
G1 X77.799 Y202.487 E14.19783
G1 X77.48 Y202.496 E14.20844
G1 X77.17 Y202.5 E14.21875
G1 X53.065 Y202.499 E15.02049
G1 X52.367 Y202.49 E15.04371
G1 X51.431 Y202.438 E15.07489
G1 X50.502 Y202.306 E15.10609
G1 X49.588 Y202.096 E15.13729
G1 X48.695 Y201.809 E15.16848
G1 X47.83 Y201.446 E15.19968
G1 X46.999 Y201.012 E15.23087
G1 X46.208 Y200.508 E15.26206
G1 X45.463 Y199.938 E15.29326
G1 X44.769 Y199.307 E15.32446
G1 X44.132 Y198.62 E15.35562
G1 X43.555 Y197.88 E15.38683
G1 X43.043 Y197.094 E15.41803
G1 X42.6 Y196.267 E15.44923
G1 X42.229 Y195.406 E15.48041
G1 X41.933 Y194.516 E15.51161
G1 X41.714 Y193.604 E15.54281
G1 X41.573 Y192.677 E15.57399
G1 X41.513 Y191.788 E15.60363
G1 X41.504 Y191.455 E15.61471
G1 X41.5 Y191.158 E15.62459
G1 X41.501 Y44.009 E20.51878
G1 X41.511 Y43.344 E20.5409
G1 X41.565 Y42.407 E20.57212
G1 X41.699 Y41.479 E20.60331
G1 X41.911 Y40.565 E20.63451
G1 X42.2 Y39.673 E20.6657
G1 X42.565 Y38.809 E20.69689
G1 X43.001 Y37.979 E20.72808
G1 X43.507 Y37.189 E20.75928
G1 X44.078 Y36.445 E20.79047
G0 F6000 X44.472 Y36.599
G1 F1200 X45.102 Y35.927 E20.82111
G1 X45.788 Y35.313 E20.85173
G1 X46.524 Y34.761 E20.88233
G1 X47.306 Y34.274 E20.91297
G1 X48.127 Y33.858 E20.94358
G1 X48.981 Y33.514 E20.97421
G1 X49.861 Y33.245 E21.00481
G1 X50.762 Y33.054 E21.03544
G1 X51.676 Y32.942 E21.06607
G1 X52.212 Y32.913 E21.08393
G1 X52.532 Y32.904 E21.09457
G1 X52.83 Y32.9 E21.10449
G1 X181.793 Y32.9 E25.39381
G1 X182.643 Y32.911 E25.42209
G1 X183.562 Y32.964 E25.4527
G1 X184.473 Y33.097 E25.48332
G1 X185.369 Y33.308 E25.51394
G1 X186.243 Y33.596 E25.54455
G1 X187.09 Y33.959 E25.5752
G1 X187.901 Y34.394 E25.60581
G1 X188.671 Y34.898 E25.63641
G1 X189.395 Y35.467 E25.66704
G1 X190.067 Y36.097 E25.69768
G1 X190.682 Y36.782 E25.7283
G1 X191.235 Y37.518 E25.75892
G1 X191.722 Y38.299 E25.78953
G1 X192.139 Y39.12 E25.82016
G1 X192.484 Y39.974 E25.85079
G1 X192.753 Y40.854 E25.8814
G1 X192.945 Y41.755 E25.91204
G1 X193.058 Y42.668 E25.94263
G1 X193.087 Y43.212 E25.96075
G1 X193.096 Y43.532 E25.9714
G1 X193.1 Y43.83 E25.98131
G1 X193.099 Y190.895 E30.87271
G1 X193.09 Y191.622 E30.8969
G1 X193.039 Y192.541 E30.92751
G1 X192.908 Y193.453 E30.95815
G1 X192.698 Y194.349 E30.98876
G1 X192.412 Y195.224 E31.01938
G1 X192.051 Y196.071 E31.05
G1 X191.617 Y196.883 E31.08063
G1 X191.115 Y197.655 E31.11125
G1 X190.547 Y198.38 E31.14189
G1 X189.919 Y199.053 E31.1725
G1 X189.235 Y199.669 E31.20312
G1 X188.5 Y200.223 E31.23373
G1 X187.72 Y200.712 E31.26435
G1 X186.9 Y201.131 E31.29498
G1 X186.047 Y201.477 E31.3256
G1 X185.167 Y201.748 E31.35622
G1 X184.267 Y201.941 E31.38684
G1 X183.353 Y202.056 E31.41747
G1 X182.788 Y202.087 E31.43629
G1 X182.467 Y202.096 E31.44698
G1 X182.17 Y202.1 E31.45685
G1 X158.045 Y202.099 E32.25926
G1 X157.325 Y202.088 E32.28321
G1 X156.582 Y202.05 E32.30795
G1 X153.855 Y201.816 E32.39898
G1 X151.347 Y201.675 E32.48253
G1 X148.793 Y201.603 E32.56751
G1 X146.284 Y201.603 E32.65096
G1 X143.737 Y201.675 E32.73571
G1 X141.22 Y201.818 E32.81956
G1 X139.79 Y201.939 E32.86729
G1 X139.637 Y201.945 E32.87238
G1 X138.399 Y202.052 E32.91371
G1 X137.788 Y202.087 E32.93407
G1 X137.469 Y202.096 E32.94468
G1 X137.17 Y202.1 E32.95463
G1 X98.224 Y202.099 E34.24998
G1 X97.543 Y202.089 E34.27263
G1 X96.789 Y202.051 E34.29774
G1 X94.019 Y201.812 E34.39021
G1 X91.509 Y201.668 E34.47383
G1 X89.002 Y201.594 E34.55725
G1 X86.456 Y201.592 E34.64193
G1 X83.945 Y201.66 E34.72548
G1 X81.398 Y201.802 E34.81033
G1 X79.78 Y201.938 E34.86433
G1 X79.671 Y201.942 E34.86796
G1 X78.399 Y202.052 E34.91042
G1 X77.788 Y202.087 E34.93078
G1 X77.469 Y202.096 E34.94139
G1 X77.17 Y202.1 E34.95134
G1 X53.07 Y202.099 E35.75291
G1 X52.372 Y202.09 E35.77613
G1 X51.453 Y202.038 E35.80674
G1 X50.542 Y201.907 E35.83735
G1 X49.646 Y201.697 E35.86796
G1 X48.771 Y201.41 E35.89859
G1 X47.924 Y201.048 E35.92922
G1 X47.112 Y200.614 E35.95985
G1 X46.341 Y200.112 E35.99045
G1 X45.616 Y199.544 E36.02108
G1 X44.943 Y198.915 E36.05172
G1 X44.328 Y198.231 E36.08231
G1 X43.774 Y197.496 E36.11293
G1 X43.286 Y196.715 E36.14356
G1 X42.867 Y195.895 E36.17418
G1 X42.521 Y195.042 E36.2048
G1 X42.251 Y194.162 E36.23541
G1 X42.058 Y193.261 E36.26606
G1 X41.944 Y192.348 E36.29666
G1 X41.913 Y191.777 E36.31568
G1 X41.904 Y191.444 E36.32676
G1 X41.9 Y191.158 E36.33628
G1 X41.901 Y44.015 E41.23027
G1 X41.911 Y43.35 E41.25239
G1 X41.965 Y42.431 E41.28301
G1 X42.098 Y41.52 E41.31363
G1 X42.31 Y40.624 E41.34426
G1 X42.599 Y39.749 E41.37491
G1 X42.963 Y38.904 E41.40551
G1 X43.398 Y38.093 E41.43612
G1 X43.903 Y37.322 E41.46677
G1 X44.472 Y36.599 E41.49737
G0 F6000 X44.866 Y36.756
G1 F1200 X45.493 Y36.106 E41.52741
G1 X46.175 Y35.514 E41.55745
G1 X46.907 Y34.985 E41.58749
G1 X47.683 Y34.523 E41.61752
G1 X48.497 Y34.132 E41.64756
G1 X49.342 Y33.813 E41.6776
G1 X50.212 Y33.571 E41.70763
G1 X51.1 Y33.407 E41.73767
G1 X52.223 Y33.313 E41.77515
G1 X52.543 Y33.304 E41.7858
G1 X52.83 Y33.3 E41.79535
G1 X181.793 Y33.3 E46.08467
G1 X182.637 Y33.311 E46.11275
G1 X183.539 Y33.364 E46.1428
G1 X184.432 Y33.496 E46.17282
G1 X185.31 Y33.707 E46.20286
G1 X186.166 Y33.995 E46.23289
G1 X186.993 Y34.357 E46.26292
G1 X187.785 Y34.792 E46.29297
G1 X188.536 Y35.294 E46.32302
G1 X189.239 Y35.861 E46.35306
G1 X189.889 Y36.488 E46.3831
G1 X190.481 Y37.17 E46.41313
G1 X191.011 Y37.901 E46.44317
G1 X191.473 Y38.677 E46.4732
G1 X191.866 Y39.49 E46.50324
G1 X192.184 Y40.335 E46.53327
G1 X192.427 Y41.205 E46.56331
G1 X192.592 Y42.093 E46.59335
G1 X192.687 Y43.223 E46.63107
G1 X192.696 Y43.543 E46.64171
G1 X192.7 Y43.83 E46.65126
G1 X192.699 Y190.89 E51.5425
G1 X192.69 Y191.617 E51.56668
G1 X192.639 Y192.519 E51.59673
G1 X192.508 Y193.413 E51.62678
G1 X192.299 Y194.291 E51.6568
G1 X192.013 Y195.148 E51.68685
G1 X191.652 Y195.976 E51.71689
G1 X191.22 Y196.768 E51.7469
G1 X190.719 Y197.52 E51.77695
G1 X190.153 Y198.224 E51.80699
G1 X189.528 Y198.875 E51.83701
G1 X188.847 Y199.469 E51.86707
G1 X188.116 Y200 E51.89712
G1 X187.342 Y200.464 E51.92713
G1 X186.529 Y200.858 E51.95718
G1 X185.685 Y201.178 E51.9872
G1 X184.815 Y201.423 E52.01726
G1 X183.928 Y201.589 E52.04728
G1 X182.777 Y201.687 E52.0857
G1 X182.456 Y201.696 E52.09638
G1 X182.17 Y201.7 E52.10589
G1 X158.051 Y201.699 E52.90809
G1 X157.331 Y201.688 E52.93204
G1 X156.617 Y201.652 E52.95582
G1 X153.879 Y201.417 E53.04722
G1 X151.347 Y201.275 E53.13157
G1 X148.804 Y201.203 E53.21618
G1 X146.272 Y201.203 E53.3004
G1 X143.738 Y201.275 E53.38471
G1 X141.199 Y201.419 E53.4693
G1 X139.756 Y201.541 E53.51746
G1 X139.586 Y201.548 E53.52312
G1 X138.365 Y201.653 E53.56388
G1 X137.777 Y201.687 E53.58347
G1 X137.458 Y201.696 E53.59409
G1 X137.17 Y201.7 E53.60367
G1 X98.23 Y201.699 E54.89881
G1 X97.549 Y201.689 E54.92147
G1 X96.824 Y201.652 E54.94561
G1 X94.078 Y201.415 E55.03728
G1 X91.543 Y201.269 E55.12174
G1 X88.979 Y201.194 E55.20705
G1 X86.447 Y201.192 E55.29127
G1 X83.909 Y201.261 E55.37571
G1 X81.381 Y201.402 E55.45993
G1 X79.747 Y201.539 E55.51446
G1 X79.637 Y201.543 E55.51813
G1 X78.365 Y201.653 E55.56059
G1 X77.777 Y201.687 E55.58018
G1 X77.458 Y201.696 E55.59079
G1 X77.17 Y201.7 E55.60037
G1 X53.075 Y201.699 E56.40178
G1 X52.377 Y201.69 E56.42499
G1 X51.476 Y201.639 E56.45501
G1 X50.582 Y201.507 E56.48507
G1 X49.704 Y201.298 E56.51508
G1 X48.847 Y201.011 E56.54514
G1 X48.02 Y200.65 E56.57516
G1 X47.227 Y200.217 E56.60521
G1 X46.476 Y199.716 E56.63523
G1 X45.772 Y199.15 E56.66528
G1 X45.121 Y198.524 E56.69532
G1 X44.528 Y197.843 E56.72535
G1 X43.998 Y197.112 E56.75538
G1 X43.534 Y196.337 E56.78543
G1 X43.14 Y195.524 E56.81547
G1 X42.82 Y194.68 E56.8455
G1 X42.576 Y193.81 E56.87555
G1 X42.41 Y192.922 E56.9056
G1 X42.313 Y191.767 E56.94415
G1 X42.304 Y191.434 E56.95523
G1 X42.3 Y191.158 E56.96441
G1 X42.301 Y44.021 E61.8582
G1 X42.311 Y43.356 E61.88032
G1 X42.365 Y42.454 E61.91038
G1 X42.498 Y41.561 E61.94041
G1 X42.709 Y40.683 E61.97044
G1 X42.998 Y39.827 E62.00049
G1 X43.361 Y39 E62.03053
G1 X43.795 Y38.209 E62.06054
G1 X44.298 Y37.458 E62.0906
G1 X44.866 Y36.756 E62.12064
G1 F1500 E55.62064
;MESH:CR6_PrimaryDrawerSlots v2.stl
G0 F6000 X51.835 Y44.31
G0 X53.31 Y44.31
G0 X53.282 Y190.718
G0 X76.718 Y190.718
G0 X76.718 Y188.718
G0 X98.282 Y188.718
G0 X98.282 Y190.718
G0 X136.9 Y190.9
;TYPE:WALL-INNER
G1 F1500 E62.12064
G1 F1200 X98.1 Y190.9 E63.41113
G1 X98.1 Y188.9 E63.47765
G1 X76.9 Y188.9 E64.18276
G1 X76.9 Y190.9 E64.24928
G1 X53.1 Y190.9 E65.04088
G1 X53.1 Y44.1 E69.92346
G1 X181.9 Y44.1 E74.20737
G1 X181.9 Y190.9 E79.08996
G1 X158.1 Y190.9 E79.88155
G1 X158.1 Y188.9 E79.94807
G1 X136.9 Y188.9 E80.65318
G1 X136.9 Y190.9 E80.7197
G0 F6000 X137.3 Y191.3
;TYPE:WALL-OUTER
G1 F1200 X97.7 Y191.3 E82.0368
G1 X97.7 Y189.3 E82.10332
G1 X77.3 Y189.3 E82.78183
G1 X77.3 Y191.3 E82.84835
G1 X52.7 Y191.3 E83.66655
G1 X52.7 Y43.7 E88.57575
G1 X182.3 Y43.7 E92.88626
G1 X182.3 Y191.3 E97.79546
G1 X157.7 Y191.3 E98.61366
G1 X157.7 Y189.3 E98.68018
G1 X137.3 Y189.3 E99.35868
G1 X137.3 Y191.3 E99.4252
G0 F6000 X137.03 Y191.03
G0 X136.79 Y190.51
G0 X136.51 Y190.51
;TYPE:SKIN
G1 F1200 X98.49 Y190.51 E100.68975
G1 X98.49 Y188.51 E100.75627
G1 X76.51 Y188.51 E101.48733
G1 X76.51 Y190.51 E101.55385
G1 X53.49 Y190.51 E102.3195
G1 X53.49 Y44.49 E107.17615
G1 X181.51 Y44.49 E111.43411
G1 X181.51 Y190.51 E116.29075
G1 X158.49 Y190.51 E117.0564
G1 X158.49 Y188.51 E117.12292
G1 X136.51 Y188.51 E117.85398
G1 X136.51 Y190.51 E117.9205
G1 F1500 E111.4205
G0 F6000 X136.79 Y190.51
G0 X98.282 Y190.718
G0 X97.928 Y189.072
G0 X77.072 Y189.072
G0 X77.06 Y190.711
G0 X54.019 Y190.79
G0 X54.019 Y190.349
G1 F1500 E117.9205
G1 F1200 X53.649 Y189.979 E117.9379
G0 F6000 X53.649 Y189.414
G1 F1200 X54.585 Y190.349 E117.98191
G0 F6000 X55.15 Y190.349
G1 F1200 X53.649 Y188.848 E118.05251
G0 F6000 X53.649 Y188.282
G1 F1200 X55.716 Y190.349 E118.14973
G0 F6000 X56.282 Y190.349
G1 F1200 X53.649 Y187.717 E118.27356
G0 F6000 X53.649 Y187.151
G1 F1200 X56.847 Y190.349 E118.42398
G0 F6000 X57.413 Y190.349
G1 F1200 X53.649 Y186.585 E118.60103
G0 F6000 X53.649 Y186.019
G1 F1200 X57.979 Y190.349 E118.8047
G0 F6000 X58.544 Y190.349
G1 F1200 X53.649 Y185.454 E119.03495
G0 F6000 X53.649 Y184.888
G1 F1200 X59.11 Y190.349 E119.29181
G0 F6000 X59.676 Y190.349
G1 F1200 X53.649 Y184.322 E119.57531
G0 F6000 X53.649 Y183.757
G1 F1200 X60.241 Y190.349 E119.88537
G0 F6000 X60.807 Y190.349
G1 F1200 X53.649 Y183.191 E120.22206
G0 F6000 X53.649 Y182.625
G1 F1200 X61.373 Y190.349 E120.58538
G0 F6000 X61.939 Y190.349
G1 F1200 X53.649 Y182.06 E120.97529
G0 F6000 X53.649 Y181.494
G1 F1200 X62.504 Y190.349 E121.3918
G0 F6000 X63.07 Y190.349
G1 F1200 X53.649 Y180.928 E121.83494
G0 F6000 X53.649 Y180.363
G1 F1200 X63.636 Y190.349 E122.30467
G0 F6000 X64.201 Y190.349
G1 F1200 X53.649 Y179.797 E122.801
G0 F6000 X53.649 Y179.231
G1 F1200 X64.767 Y190.349 E123.32396
G0 F6000 X65.333 Y190.349
G1 F1200 X53.649 Y178.666 E123.87352
G0 F6000 X53.649 Y178.1
G1 F1200 X65.898 Y190.349 E124.44967
G0 F6000 X66.464 Y190.349
G1 F1200 X53.649 Y177.534 E125.05245
G0 F6000 X53.649 Y176.969
G1 F1200 X67.03 Y190.349 E125.68183
G0 F6000 X67.595 Y190.349
G1 F1200 X53.649 Y176.403 E126.33781
G0 F6000 X53.649 Y175.837
G1 F1200 X68.161 Y190.349 E127.02041
G0 F6000 X68.727 Y190.349
G1 F1200 X53.649 Y175.271 E127.72963
G0 F6000 X53.649 Y174.706
G1 F1200 X69.292 Y190.349 E128.46543
G0 F6000 X69.858 Y190.349
G1 F1200 X53.649 Y174.14 E129.22785
G0 F6000 X53.649 Y173.574
G1 F1200 X70.424 Y190.349 E130.01689
G0 F6000 X70.989 Y190.349
G1 F1200 X53.649 Y173.009 E130.83251
G0 F6000 X53.649 Y172.443
G1 F1200 X71.555 Y190.349 E131.67476
G0 F6000 X72.121 Y190.349
G1 F1200 X53.649 Y171.877 E132.54362
G0 F6000 X53.649 Y171.312
G1 F1200 X72.687 Y190.349 E133.43909
G0 F6000 X73.252 Y190.349
G1 F1200 X53.649 Y170.746 E134.36115
G0 F6000 X53.649 Y170.18
G1 F1200 X73.818 Y190.349 E135.30984
G0 F6000 X74.384 Y190.349
G1 F1200 X53.649 Y169.615 E136.28513
G0 F6000 X53.649 Y169.049
G1 F1200 X74.949 Y190.349 E137.28702
G0 F6000 X75.515 Y190.349
G1 F1200 X53.649 Y168.483 E138.31553
G0 F6000 X53.649 Y167.918
G1 F1200 X76.081 Y190.349 E139.37063
G0 F6000 X76.35 Y190.053
G1 F1200 X53.649 Y167.352 E140.43842
G0 F6000 X53.649 Y166.786
G1 F1200 X76.35 Y189.487 E141.50621
G0 F6000 X76.35 Y188.921
G1 F1200 X53.649 Y166.221 E142.57397
G0 F6000 X53.649 Y165.655
G1 F1200 X76.35 Y188.356 E143.64175
G0 F6000 X76.909 Y188.349
G1 F1200 X53.649 Y165.089 E144.73583
G0 F6000 X53.649 Y164.523
G1 F1200 X77.474 Y188.349 E145.85651
G0 F6000 X78.04 Y188.349
G1 F1200 X53.649 Y163.958 E147.00379
G0 F6000 X53.649 Y163.392
G1 F1200 X78.606 Y188.349 E148.17769
G0 F6000 X79.171 Y188.349
G1 F1200 X53.649 Y162.826 E149.37819
